frontend/public/logo.svg

<svg width="85" height="19" viewBox="0 0 85 19" fill="none" xmlns="http://www.w3.org/2000/svg">
<path d="M34 15C34 16.1046 34.8954 17 36 17C37.1046 17 38 16.1046 38 15C38 13.8954 37.1046 13 36 13C34.8954 13 34 13.8954 34 15Z" fill="#BEDBFF"/>
<path d="M0 17H72.7656V19H0V17ZM81.8594 17H84.6469V19H81.8594V17Z" fill="#BEDBFF"/>
<path d="M76.2289 18.9844C75.6234 18.9844 75.1351 18.9648 74.764 18.9258V16.6797C75.2588 16.7057 75.6495 16.7188 75.9359 16.7188C76.1638 16.7188 76.3526 16.6992 76.5023 16.6602C76.6586 16.6211 76.8051 16.5299 76.9418 16.3867C77.085 16.2435 77.212 16.0286 77.3226 15.7422L77.4984 15.293L73.6898 4.39453H76.7172L78.9437 12.207H79.0609L81.307 4.39453H84.3734L80.2328 16.1719C79.9138 17.0768 79.4353 17.7702 78.7972 18.252C78.1592 18.7402 77.3031 18.9844 76.2289 18.9844Z" fill="#262C33"/>
<path d="M72.3835 15H69.4929V0.859375H72.3835V15Z" fill="#262C33"/>
<path d="M64.4563 4.39453H67.3469V15H64.4563V4.39453ZM65.9016 3.00781C65.6152 3.00781 65.3482 2.94271 65.1008 2.8125C64.8599 2.67578 64.6679 2.49674 64.5247 2.27539C64.3879 2.04753 64.3196 1.80339 64.3196 1.54297C64.3196 1.27604 64.3879 1.02865 64.5247 0.800781C64.6679 0.572917 64.8599 0.39388 65.1008 0.263672C65.3482 0.126953 65.6152 0.0585938 65.9016 0.0585938C66.1816 0.0585938 66.442 0.126953 66.6829 0.263672C66.9237 0.39388 67.1125 0.572917 67.2493 0.800781C67.3925 1.02865 67.4641 1.27604 67.4641 1.54297C67.4641 1.80339 67.3925 2.04753 67.2493 2.27539C67.1125 2.49674 66.9237 2.67578 66.6829 2.8125C66.442 2.94271 66.1816 3.00781 65.9016 3.00781Z" fill="#262C33"/>
<path d="M52.8961 12.0312C52.8961 10.9375 53.264 10.1367 53.9996 9.62891C54.7353 9.12109 55.6826 8.83464 56.8414 8.76953C57.5576 8.72396 58.4365 8.67839 59.4781 8.63281V7.77344C59.4651 7.33073 59.3121 6.98568 59.0192 6.73828C58.7262 6.49089 58.3128 6.36719 57.7789 6.36719C57.2972 6.36719 56.9033 6.47135 56.5973 6.67969C56.2913 6.88802 56.0992 7.17448 56.0211 7.53906H53.2672C53.3258 6.91406 53.5406 6.35417 53.9117 5.85938C54.2893 5.36458 54.8134 4.97396 55.484 4.6875C56.1546 4.40104 56.9456 4.25781 57.8571 4.25781C58.6643 4.25781 59.4065 4.38477 60.0836 4.63867C60.7672 4.89258 61.3141 5.28971 61.7242 5.83008C62.1409 6.36393 62.3492 7.03776 62.3492 7.85156V15H59.6149V13.5352H59.5367C59.2568 14.0495 58.8564 14.4564 58.3356 14.7559C57.8212 15.0488 57.1865 15.1953 56.4313 15.1953C55.7412 15.1953 55.1292 15.0781 54.5953 14.8438C54.068 14.6029 53.6513 14.2448 53.3453 13.7695C53.0459 13.2943 52.8961 12.7148 52.8961 12.0312ZM55.6696 11.9531C55.6696 12.3503 55.8128 12.6595 56.0992 12.8809C56.3922 13.0957 56.7763 13.2031 57.2516 13.2031C57.6813 13.2031 58.0654 13.1152 58.4039 12.9395C58.749 12.7637 59.0159 12.5228 59.2047 12.2168C59.3935 11.9108 59.4847 11.5755 59.4781 11.2109V10.4395C59.1722 10.446 58.7946 10.4622 58.3453 10.4883C57.8961 10.5143 57.5511 10.5404 57.3102 10.5664C56.8024 10.6185 56.402 10.7617 56.109 10.9961C55.816 11.2305 55.6696 11.5495 55.6696 11.9531Z" fill="#262C33"/>
<path d="M45.1836 15.1758C44.3633 15.1758 43.6276 14.9642 42.9766 14.541C42.3255 14.1113 41.8112 13.4863 41.4336 12.666C41.056 11.8392 40.8672 10.8529 40.8672 9.70703C40.8672 8.53516 41.0592 7.54232 41.4434 6.72852C41.8275 5.9082 42.3451 5.29297 42.9961 4.88281C43.6536 4.46615 44.3828 4.25781 45.1836 4.25781C45.9844 4.25781 46.6257 4.44336 47.1074 4.81445C47.5892 5.18555 47.9505 5.63802 48.1914 6.17188H48.2891V0.859375H51.1797V15H48.3281V13.3008H48.1914C47.944 13.8281 47.5762 14.2741 47.0879 14.6387C46.5996 14.9967 45.9648 15.1758 45.1836 15.1758ZM46.082 12.8711C46.5573 12.8711 46.9642 12.7409 47.3027 12.4805C47.6413 12.2135 47.8984 11.8424 48.0742 11.3672C48.2565 10.8854 48.3477 10.3255 48.3477 9.6875C48.3477 8.72396 48.1491 7.96224 47.752 7.40234C47.3548 6.84245 46.7982 6.5625 46.082 6.5625C45.3659 6.5625 44.8125 6.8457 44.4219 7.41211C44.0312 7.97852 43.8359 8.73698 43.8359 9.6875C43.8359 10.651 44.0312 11.4225 44.4219 12.002C44.8125 12.5814 45.3659 12.8711 46.082 12.8711Z" fill="#262C33"/>
<path d="M30.5422 6.5625H28.55V11.7383C28.55 12.1289 28.6347 12.4023 28.804 12.5586C28.9732 12.7148 29.2206 12.7995 29.5461 12.8125C29.9628 12.8125 30.3469 12.793 30.6985 12.7539V15.0391C30.3534 15.1042 29.8391 15.1367 29.1555 15.1367C28.0683 15.1367 27.2122 14.8861 26.5872 14.3848C25.9622 13.8835 25.6529 13.138 25.6594 12.1484V6.5625H24.1946V4.39453H25.6594V1.85547H28.55V4.39453H30.5422V6.5625Z" fill="#262C33"/>
<path d="M18.025 15.2148C16.9703 15.2148 16.0524 14.987 15.2711 14.5312C14.4899 14.0755 13.8877 13.4342 13.4645 12.6074C13.0413 11.7741 12.8297 10.8138 12.8297 9.72656C12.8297 8.63932 13.038 7.68229 13.4547 6.85547C13.8779 6.02865 14.4801 5.39062 15.2614 4.94141C16.0491 4.48568 16.9703 4.25781 18.025 4.25781C19.0797 4.25781 20.0009 4.48568 20.7887 4.94141C21.5765 5.39062 22.1819 6.02865 22.6051 6.85547C23.0283 7.68229 23.2399 8.63932 23.2399 9.72656C23.2399 10.8138 23.0283 11.7741 22.6051 12.6074C22.1819 13.4342 21.5765 14.0755 20.7887 14.5312C20.0009 14.987 19.0797 15.2148 18.025 15.2148ZM18.0446 12.9688C18.5263 12.9688 18.9365 12.832 19.275 12.5586C19.6136 12.2786 19.8675 11.8945 20.0367 11.4062C20.206 10.918 20.2906 10.3581 20.2906 9.72656C20.2906 9.09505 20.206 8.53516 20.0367 8.04688C19.8675 7.55208 19.6136 7.16471 19.275 6.88477C18.9365 6.60482 18.5263 6.46484 18.0446 6.46484C17.5563 6.46484 17.1396 6.60482 16.7946 6.88477C16.456 7.16471 16.1989 7.55208 16.0231 8.04688C15.8473 8.53516 15.7594 9.09505 15.7594 9.72656C15.7594 10.3516 15.8473 10.9115 16.0231 11.4062C16.1989 11.8945 16.456 12.2786 16.7946 12.5586C17.1396 12.832 17.5563 12.9688 18.0446 12.9688Z" fill="#262C33"/>
<path d="M5.03906 15.1758C4.21875 15.1758 3.48307 14.9642 2.83203 14.541C2.18099 14.1113 1.66667 13.4863 1.28906 12.666C0.911458 11.8392 0.722656 10.8529 0.722656 9.70703C0.722656 8.53516 0.914714 7.54232 1.29883 6.72852C1.68294 5.9082 2.20052 5.29297 2.85156 4.88281C3.50911 4.46615 4.23828 4.25781 5.03906 4.25781C5.83984 4.25781 6.48112 4.44336 6.96289 4.81445C7.44466 5.18555 7.80599 5.63802 8.04688 6.17188H8.14453V0.859375H11.0352V15H8.18359V13.3008H8.04688C7.79948 13.8281 7.43164 14.2741 6.94336 14.6387C6.45508 14.9967 5.82031 15.1758 5.03906 15.1758ZM5.9375 12.8711C6.41276 12.8711 6.81966 12.7409 7.1582 12.4805C7.49674 12.2135 7.75391 11.8424 7.92969 11.3672C8.11198 10.8854 8.20312 10.3255 8.20312 9.6875C8.20312 8.72396 8.00456 7.96224 7.60742 7.40234C7.21029 6.84245 6.65365 6.5625 5.9375 6.5625C5.22135 6.5625 4.66797 6.8457 4.27734 7.41211C3.88672 7.97852 3.69141 8.73698 3.69141 9.6875C3.69141 10.651 3.88672 11.4225 4.27734 12.002C4.66797 12.5814 5.22135 12.8711 5.9375 12.8711Z" fill="#262C33"/>
</svg>

<svg fill="none" viewBox="0 0 85 19"><path fill="#bedbff" d="M34 15a2 2 0 1 0 4 0 2 2 0 0 0-4 0"/><path fill="#bedbff" d="M0 17h72.766v2H0zm81.86 0h2.787v2h-2.788z"/><path fill="#262c33" d="M76.229 18.984q-.909 0-1.465-.058V16.68q.743.039 1.172.039.342 0 .566-.059a.9.9 0 0 0 .44-.273q.215-.215.38-.645l.176-.449L73.69 4.395h3.027l2.227 7.812h.117l2.246-7.812h3.066l-4.14 11.777q-.48 1.357-1.436 2.08-.957.732-2.568.732M72.384 15h-2.891V.86h2.89zM64.456 4.395h2.89V15h-2.89zm1.446-1.387q-.43 0-.801-.195a1.6 1.6 0 0 1-.576-.538 1.4 1.4 0 0 1-.205-.732q0-.4.205-.742.215-.342.576-.537a1.63 1.63 0 0 1 1.582 0q.361.195.566.537a1.37 1.37 0 0 1 0 1.474 1.55 1.55 0 0 1-1.347.733m-13.006 9.023q0-1.64 1.104-2.402 1.103-.762 2.841-.86 1.075-.067 2.637-.136v-.86q-.02-.663-.459-1.035-.44-.37-1.24-.37-.723 0-1.182.312a1.34 1.34 0 0 0-.576.86h-2.754a3.25 3.25 0 0 1 .645-1.68q.566-.742 1.572-1.173 1.006-.43 2.373-.43 1.211 0 2.227.382 1.025.38 1.64 1.191.625.801.625 2.022V15h-2.734v-1.465h-.078q-.42.772-1.201 1.22-.773.44-1.905.44-1.035 0-1.836-.351a2.87 2.87 0 0 1-1.25-1.074q-.45-.713-.449-1.739m2.774-.078q0 .596.43.928.438.322 1.152.322.644 0 1.152-.263.518-.264.8-.723.284-.46.274-1.006v-.771q-.459.009-1.133.048t-1.035.078q-.762.078-1.201.43-.44.351-.44.957m-10.485 3.223q-1.23 0-2.207-.635-.977-.645-1.543-1.875-.567-1.24-.567-2.959 0-1.758.576-2.978.577-1.23 1.553-1.846a4 4 0 0 1 2.188-.625q1.2 0 1.923.556.723.558 1.084 1.358h.098V.859h2.89V15h-2.85v-1.7h-.138a3.5 3.5 0 0 1-1.103 1.339q-.732.537-1.904.537m.898-2.305q.713 0 1.22-.39.509-.402.772-1.114.274-.723.274-1.68 0-1.445-.596-2.285t-1.67-.84-1.66.85-.586 2.276q0 1.444.586 2.314t1.66.87m-15.54-6.309H28.55v5.175q0 .585.254.82.255.235.742.255.625 0 1.152-.06v2.286q-.517.098-1.543.098-1.63 0-2.568-.752-.937-.752-.928-2.237V6.563h-1.464V4.395h1.464v-2.54h2.891v2.54h1.992zm-12.517 8.652q-1.582 0-2.754-.684a4.6 4.6 0 0 1-1.807-1.924q-.634-1.25-.634-2.88 0-1.632.625-2.872a4.54 4.54 0 0 1 1.806-1.914q1.182-.683 2.764-.683t2.764.683a4.5 4.5 0 0 1 1.816 1.914q.635 1.24.635 2.872 0 1.63-.635 2.88a4.6 4.6 0 0 1-1.816 1.924q-1.182.684-2.764.684m.02-2.246q.722 0 1.23-.41.508-.42.762-1.153.254-.732.254-1.68 0-.946-.254-1.68-.254-.741-.762-1.161t-1.23-.42q-.733 0-1.25.42-.508.42-.772 1.162-.264.732-.264 1.68 0 .938.264 1.68.264.732.772 1.152.517.41 1.25.41M5.04 15.176q-1.231 0-2.208-.635-.976-.645-1.543-1.875-.566-1.24-.566-2.959 0-1.758.576-2.978.576-1.23 1.553-1.846a4 4 0 0 1 2.187-.625q1.2 0 1.924.556.723.558 1.084 1.358h.098V.859h2.89V15H8.184v-1.7h-.137a3.5 3.5 0 0 1-1.104 1.339q-.732.537-1.904.537m.898-2.305q.713 0 1.22-.39.508-.402.772-1.114.273-.723.273-1.68 0-1.445-.596-2.285-.595-.84-1.67-.84t-1.66.85-.586 2.276q0 1.444.586 2.314t1.66.87"/></svg>
